X:1
T:Lonsdale, 77.77
T:Lonsdale, 77.77
T:Frederick Alfred John Hervey (1846-1910)
T:Public Domain Courtesy of the Cyber Hymnal™
C:Frederick Alfred John Hervey (1846-1910)
Z:Public Domain
Z:Courtesy of the Cyber Hymnal™
%%score ( 1 2 ) ( 3 4 )
L:1/8
Q:1/4=108
M:4/4
K:Bb
V:1 treble 
V:2 treble 
V:3 bass 
V:4 bass 
V:1
 [DF]2 [FB]2 [FA]2 [FB]2 | [FG]2 [EG]2 [DF]4 | [DB]2 [Fd]2 [Gc]2 [FA]2 | [FG]2 [=EG]2 [FA]4 | %4
 [FB]2 [^FA]2 G2 [=FG]2 | [EA]2 [EG]2 [EF]4 | [DF]2 [Fd]2 [Gc]2 [GB]2 | B2 z [DB]4 x |] %8
V:2
 x8 | x8 | x8 | x8 | x4 G2 x2 | x8 | x8 | F3 A2 E x2 |] %8
V:3
 [B,,B,]2 [D,B,]2 [F,C]2 [D,B,]2 | [E,B,]2 [G,B,]2 B,4 | [G,B,]2 [D,B,]2 [=E,G,]2 [F,C]2 | %3
 [B,,D]2 [C,C]2 [F,C]4 | [D,D]2 [D,C]2 [E,B,]2 [D,=B,]2 | [C,C]2 [C,B,]2 ([F,A,]2 [G,B,][A,C]) | %6
 [B,D]2 [D,B,]2 [E,G,]2 [C,E]2 | [F,D]2 [F,C]2 [B,,B,]4 |] %8
V:4
 x8 | x4 (B,2 A,2) | x8 | x8 | x8 | x8 | x8 | x8 |] %8

